img/icons/user/infoPanel/growUp.svg

<svg width="25" height="25" viewBox="0 0 25 25" fill="none" xmlns="http://www.w3.org/2000/svg">
<path d="M20.4878 7.5L14.6416 13.4375C14.5365 13.5442 14.4835 13.5976 14.4365 13.6396C13.6772 14.3193 12.5284 14.3193 11.7691 13.6396C11.722 13.5976 11.669 13.5442 11.564 13.4375C11.4589 13.3308 11.4064 13.2774 11.3594 13.2354C10.6 12.5557 9.45127 12.5557 8.69191 13.2354C8.6449 13.2774 8.59236 13.3308 8.48731 13.4375L4.4873 17.5M20.4878 7.5L20.4873 13.5M20.4878 7.5H14.4873" stroke="#F56311" stroke-width="2" stroke-linecap="round" stroke-linejoin="round"/>
</svg>

<svg width="25" height="25" fill="none" xmlns="http://www.w3.org/2000/svg"><path d="m20.488 7.5-5.846 5.938c-.105.106-.159.16-.205.202a2 2 0 0 1-2.668 0 4.817 4.817 0 0 1-.205-.203c-.105-.106-.158-.16-.205-.202a2 2 0 0 0-2.667 0c-.047.042-.1.096-.205.203l-4 4.062m16-10v6m0-6h-6" stroke="#F56311" stroke-width="2" stroke-linecap="round" stroke-linejoin="round"/></svg>
